X: 10432
T: The HAMBURGH WALTZ
R: Waltz.
%R: waltz
B: W. Hamilton "Universal Tune-Book" Vol. 1 Glasgow 1844 p.43 #2
S: http://imslp.org/wiki/Hamilton's_Universal_Tune-Book_(Various)
Z: 2016 John Chambers <jc:trillian.mit.edu>
N: The segno and the "D.C." are a bit redundant.
M: 3/8
L: 1/16
K: Bb
% - - - - - - - - - - - - - - - - - - - - - - - - -
Bc !segno!|:\
d2d2 cd | e2e2 de | fdBABd | cFGABc |\
d2d2 cd | e2e2 de | fgecAc | B4 ::\
fd |\
g2g2 fd | e2c2 ec |
=Bcdefg | fedcec |\
f2f2 ec | d2B2 dB | ABcdef | edcBdB |\
ecAfdB | ecAfdB | ececdB | fgec"_D.C."Bc !segno!:|
% - - - - - - - - - - - - - - - - - - - - - - - - -

%%sep 1 1 500
%%sep 1 1 500

